svgs/duotone/paragraph.svg

<svg xmlns="http://www.w3.org/2000/svg" viewBox="0 0 448 512"><!-- Font Awesome Pro 6.0.0-alpha2 by @fontawesome - https://fontawesome.com License - https://fontawesome.com/license (Commercial License) --><defs><style>.fa-secondary{opacity:.4}</style></defs><path d="M384 96V448C384 465.674 369.674 480 352.002 480H351.998C334.326 480 320 465.674 320 448V96H384Z" class="fa-secondary"/><path d="M447.999 63.998V64C447.999 81.674 433.673 96 416.001 96H287.999V448C287.999 465.674 273.673 480 256.001 480H255.997C238.325 480 223.999 465.674 223.999 448V352H198.859C115.288 352 40.669 290.893 32.749 207.699C23.661 112.266 98.445 32 191.999 32H416.001C433.673 32 447.999 46.326 447.999 63.998Z" class="fa-primary"/></svg>

<svg xmlns="http://www.w3.org/2000/svg" viewBox="0 0 448 512"><!--! Font Awesome Pro 6.4.0 by @fontawesome - https://fontawesome.com License - https://fontawesome.com/license (Commercial License) Copyright 2023 Fonticons, Inc. --><defs><style>.fa-secondary{opacity:.4}</style></defs><path class="fa-primary" d="M192 32h64H416c17.7 0 32 14.3 32 32s-14.3 32-32 32H288V448c0 17.7-14.3 32-32 32s-32-14.3-32-32V352H192c-88.4 0-160-71.6-160-160s71.6-160 160-160z"/><path class="fa-secondary" d="M320 448l0-352 64 0V448c0 17.7-14.3 32-32 32s-32-14.3-32-32z"/></svg>
